X:1
T: Lowe's Hornpipe
C:William Marshall
R:Reel
Q: 232
K:Bb
M:4/4
L:1/8
de|:fe dc BA BF|G2 B2 B2 de|fe dc BA BF|G2 c2 c2 de|
fe dc BA BF|GB Ac cB AG|FA ce dg fe|1d2 B2 B2 de:|2d2 B2 B2 FE|
|:DF BF DF BF|EG BG EG BG|Ac ec Ac ec|Bd fd Bd gd|
DF BF DF BF|EG BG EG BG|FA ce dg fe|1d2 B2 B2 FE:|2d2 B2 B2||
